!!!COM: Music21
!!!OTL: Alalá
!!!OMV: pezas_alalas_alala-23_alala-partitura.musicxml
**kern
*I"Bagpipes
*I'Bag
*clefG^2
*k[b-e-a-]
*E-:
*M2/4
=1
!LO:TX:a:t=Largo
*MM48
!LO:TX:a:t=[quarter]=48
4.cc
8dd
=
8eenL
8ffJ
8ggL
8aa-J
=
4aa-
[4gg
=
4gg;]
4r
=
4.cc
8dd
=
8eenL
8ffJ
24ggLL
24aa-JJ
24r
8ff
=
4gg
[4ff
=
4ff;]
4r
=||
4.cc
8dd
!!linebreak:original
=
8eenL
8ffJ
8ggL
8aa-J
=
8.bb-L
16aa-Jk
4gg;
=
8aa-L
8ffJ
8ggL
8een;J
=
8ffL
8ddJ
16eenLL
16ff
16ee
16ddJJ
=
2cc;
=||
4.cc
8dd
!!linebreak:original
=
8eenL
8ffJ
8ggL
8aa-J
=
8.bb-L
16aa-Jk
4gg;
=
8aa-L
8ffJ
8ggL
8een;J
=
8ffL
8ddJ
16eenLL
16ff
16ee
16ddJJ
=
2cc;
=||
4..dd-X
32ee-LLL
32dd-JJJ
=
2cc;
==
*-
